teeny/outline/youtube.svg

<svg width="15" height="15" viewBox="0 0 15 15" fill="none" xmlns="http://www.w3.org/2000/svg">
<path d="M1.61087 12.738L1.5061 13.2269H1.5061L1.61087 12.738ZM13.3891 12.738L13.4939 13.2269L13.3891 12.738ZM13.3891 2.26196L13.4939 1.77306V1.77306L13.3891 2.26196ZM1.61087 2.26196L1.71563 2.75086L1.61087 2.26196ZM6.5 5.5L6.77735 5.08398C6.62392 4.98169 6.42665 4.97215 6.26407 5.05916C6.10149 5.14617 6 5.3156 6 5.5H6.5ZM6.5 9.5H6C6 9.6844 6.10149 9.85383 6.26407 9.94084C6.42665 10.0278 6.62392 10.0183 6.77735 9.91603L6.5 9.5ZM9.5 7.5L9.77735 7.91603C9.91645 7.82329 10 7.66718 10 7.5C10 7.33282 9.91645 7.17671 9.77735 7.08398L9.5 7.5ZM0 3.63609V11.3639H1V3.63609H0ZM15 11.3639V3.63609H14V11.3639H15ZM1.5061 13.2269C5.45719 14.0736 9.54281 14.0736 13.4939 13.2269L13.2844 12.2491C9.4714 13.0662 5.5286 13.0662 1.71563 12.2491L1.5061 13.2269ZM13.4939 1.77306C9.54281 0.926396 5.45719 0.926396 1.5061 1.77306L1.71563 2.75086C5.5286 1.9338 9.4714 1.9338 13.2844 2.75086L13.4939 1.77306ZM15 3.63609C15 2.73766 14.3724 1.9613 13.4939 1.77306L13.2844 2.75086C13.7018 2.84031 14 3.20919 14 3.63609H15ZM14 11.3639C14 11.7908 13.7018 12.1597 13.2844 12.2491L13.4939 13.2269C14.3724 13.0387 15 12.2623 15 11.3639H14ZM0 11.3639C0 12.2623 0.627614 13.0387 1.5061 13.2269L1.71563 12.2491C1.29821 12.1597 1 11.7908 1 11.3639H0ZM1 3.63609C1 3.20919 1.29821 2.84031 1.71563 2.75086L1.5061 1.77306C0.627614 1.9613 0 2.73766 0 3.63609H1ZM6 5.5V9.5H7V5.5H6ZM6.77735 9.91603L9.77735 7.91603L9.22265 7.08398L6.22265 9.08398L6.77735 9.91603ZM9.77735 7.08398L6.77735 5.08398L6.22265 5.91603L9.22265 7.91603L9.77735 7.08398Z" fill="black"/>
</svg>

<svg viewBox="0 0 15 15" xmlns="http://www.w3.org/2000/svg"><path d="M1.61 12.73l-.11.48v0l.1-.49Zm11.77 0l.1.48 -.11-.49Zm0-10.48l.1-.49v0l-.11.48Zm-11.78 0l.1.48 -.11-.49Zm4.88 3.23l.27-.42c-.16-.11-.36-.12-.52-.03 -.17.08-.27.25-.27.44h.5Zm0 4h-.5c0 .18.1.35.26.44 .16.08.35.07.51-.03l-.28-.42Zm3-2l.27.41c.13-.1.22-.25.22-.42 0-.17-.09-.33-.23-.42l-.28.41Zm-9.5-3.87v7.72h1V3.6h-1Zm15 7.72V3.6h-1v7.72h1Zm-13.5 1.86c3.95.84 8.03.84 11.98 0l-.21-.98c-3.82.81-7.76.81-11.57 0l-.21.97ZM13.46 1.73C9.5.88 5.42.88 1.47 1.73l.2.97c3.81-.82 7.75-.82 11.56 0l.2-.98Zm1.5 1.86c0-.9-.63-1.68-1.51-1.87l-.21.97c.41.08.71.45.71.88h1Zm-1 7.72c0 .42-.3.79-.72.88l.2.97c.87-.19 1.5-.97 1.5-1.87h-1Zm-14 0c0 .89.62 1.67 1.5 1.86l.2-.98c-.42-.09-.72-.46-.72-.89h-1Zm1-7.73c0-.43.29-.8.71-.89l-.21-.98c-.88.18-1.51.96-1.51 1.86h1Zm5 1.86v4h1v-4h-1Zm.77 4.41l3-2 -.56-.84 -3 2 .55.83Zm3-2.84l-3-2 -.56.83 3 2L9.72 7Z"/></svg>
